X:1
T:Tradiderunt me - Zoilo
T:#
%%score [ 1 2 3 4 ]
L:1/8
Q:1/4=200
M:none
K:F
V:1 treble nm="S" snm="S"
V:2 treble nm="A" snm="A"
V:3 treble-8 nm="T" snm="T"
V:4 bass nm="B" snm="B"
V:1
"^Tradiderunt me""^Annibale Zoilo\n(c.1537-92)" G12 G4 | A4 A4 A8 | A8 A8- | A4 A4 A4 G4 | F8 E8- | %5
w: Tra- di-|de- runt me|in ma\-|* nus im- pi-|o- rum,|
 E8 z8 | z16 |[M:4/2] z16 | F12 A4 | G4 G4 ^F8 | z8 G8- | G4 E4 E4 D4 | E8 F4 B4- | B2 B2 B4 A8 | %14
w: |||pro- je-|ce- runt me,|et|* non pe- per-|ce- runt a\-|* ni- mae me-|
 A4 B8 A4 | G4 G4 ^F4 B4 | B4 B4 A8 | (G2 A2 B8 A2 G2) | A8 z8 || A8 B8 | B4 B4 B8 | A4 G4 F4 B4 | %22
w: ae: con- gre-|ga- ti sunt ad-|ver- sum me|for\- * * * *|tes:|Et si-|cut gi- gan-|tes ste- te- runt|
 (A2 G2 G8) ^F4 | !fermata!G16 || z16 | z16 | z16 | z16 |[M:4/2] z16 | z16 | z16 | z16 | z16 | %33
w: con\- * * tra|me.||||||||||
 z16 |[M:4/2] z16 | z16 | z16 ||"^Tutti" A8 B8 | B4 B4 B8 | %39
w: ||||Et si-|cut gi- gan-|
[Q:1/4=197] A4[Q:1/4=193] G4[Q:1/4=190] F4[Q:1/4=186] B4 | %40
w: tes ste- te- runt|
[Q:1/4=183] (A2[Q:1/4=181] G2[Q:1/4=177] G8)[Q:1/4=171] ^F4 |[Q:1/4=170] !fermata!G16 |] %42
w: con\- * * tra|me.|
V:2
 D12 D4 | F4 F4 E8 | F8 F8- | F4 F4 F4 E4 | (D12 C2 B,2) | C4 z4 E8- | E4 E4 E4 E4 | %7
w: Tra- di-|de- runt me|in ma\-|* nus im- pi-|o\- * *|rum, et|* in- ter i-|
[M:4/2] D12 C4 | C4 D4 (C2 A,2 D4- | D2 CB,) C4 D8 | z8 E8- | E4 C4 C4 =B,4 | C8 D4 F4- | %13
w: ni- quos|pro- je- ce\- * *|* * * runt me,|et|* non pe- per-|ce- runt a\-|
 F2 F2 G4 E8 | ^F4 G8 F4 | D4 _E4 D4 F4 | F4 F4 F8 | (D4 E4) F8- | F8 z8 || ^F8 G8 | G4 G4 F8 | %21
w: * ni- mae me-|ae: con- gre-|ga- ti sunt ad-|ver- sum me|for\- * tes:||Et si-|cut gi- gan-|
 F4 D4 D4 F4 | _E4 C4 D8- | D16 || z16 | z16 | z16 | z16 |[M:4/2] z16 | z16 | z16 | z16 | z16 | %33
w: tes ste- te- runt|con- tra me.|||||||||||
 z16 |[M:4/2] z16 | z16 | z16 || ^F8 G8 | G4 G4 F8 | F4 D4 D4 F4 | _E4 C4 D8- | D16 |] %42
w: ||||Et si-|cut gi- gan-|tes ste- te- runt|con- tra me.||
V:3
 B12 B4 | (c4 d6 ^c=B) c4 | d8 c8 | c4 c4 c4 c4 | A8 A8 | z4 c8 c4 | c4 c4 B8- | %7
w: Tra- di-|de\- * * * runt|me in|ma- nus im- pi-|o- rum,|et in-|ter i- ni\-|
[M:4/2][K:treble-8] B4 A4 F4 G4 | (A12 G2 F2 | G4) G4 A8 | z8 c8- | c4 G4 G4 G4 | G8 B4 d4- | %13
w: * quos pro- je-|ce\- * *|* runt me,|et|* non pe- per-|ce- runt a\-|
 d2 d2 (d6 ^c=B) c4 | d4 d8 d4 | =B4 c4 A4 d4 | d4 d4 c8 | B8 c8- | c8 z8 || d8 d8 | d4 d4 d8 | %21
w: * ni- mae * * me-|ae: con- gre-|ga- ti sunt ad-|ver- sum me|for- tes:||Et si-|cut gi- gan-|
 c4 B4 A4 d4 | (c2 B2 A2 G2 A4) A4 | G16 ||"^Duo" z8 A8- | A8 (B6 A2) | (B2 c2 d8 ^c4) | %27
w: tes ste- te- runt|con\- * * * * tra|me.|A\-|* li\- *|e\- * * *|
 d4 A4 A4 A4 | B8 G4 c4 | (c6 B2 A2 G2 A4- | A2 F2 B8) A4 | B16 | z4 F4 F4 F4 | A4 A4 c8 | %34
w: ni in- sur- re-|xe- runt ad-|ver\- * * * *|* * * sum|me,|et for- tes|quae- si- e-|
 B4 c4 A4 B4 | (A2 G2 G8 ^F4) | G16 || d8 d8 | d4 d4 d8 | c4 B4 A4 d4 | (c2 B2 A2 G2 A4) A4 | %41
w: runt a- ni- mam|me\- * * *|am.|Et si-|cut gi- gan-|tes ste- te- runt|con\- * * * * tra|
 G16 |] %42
w: me.|
V:4
 G,12 G,4 | F,4 D,4 A,8 | D,8 F,8- | F,4 F,4 F,4 C,4 | D,8 A,,8 | A,12 A,4 | A,4 A,4 G,8- | %7
w: Tra- di-|de- runt me|in ma\-|* nus im- pi-|o- rum,|et in-|ter i- ni\-|
[M:4/2] G,4 F,4 D,4 E,4 | (F,12 E,2 D,2 | _E,4) E,4 D,8 | z8 C,8- | C,4 C,4 C,4 G,,4 | %12
w: * quos pro- je-|ce\- * *|* runt me,|et|* non pe- per-|
 C,8 B,,4 B,4- | B,2 B,2 G,4 A,8 | D,4 G,8 D,4 | G,4 C,4 D,4 B,,4 | B,,4 B,,4 F,8 | G,8 F,8- | %18
w: ce- runt a\-|* ni- mae me-|ae: con- gre-|ga- ti sunt ad-|ver- sum me|for- tes:|
 F,8 z8 || D,8 G,8 | G,4 G,4 B,8 | F,4 G,4 D,4 B,,4 | (C,4 _E,4) D,8 | G,,16 || D,16 | F,8 (G,8- | %26
w: |Et si-|cut gi- gan-|tes ste- te- runt|con\- * tra|me.|A-|li- e\-|
 G,4 F,4 E,8) | D,8 z4 D,4 | D,4 D,4 _E,8 | C,4 F,4 (F,6 _E,2 | D,4 C,2 B,,2 C,4) C,4 | %31
w: |ni in-|sur- re- xe-|runt ad- ver\- *|* * * * sum|
 B,,8 z4 B,,4 | B,,4 B,,4 D,4 D,4 | F,8 E,4 F,4 | D,4 C,4 (D,4 B,,4 | C,2 B,,2 A,,2 G,,2 A,,8) | %36
w: me, et|for- tes quae- si-|e- runt a-|ni- mam me\- *||
 G,,16 || D,8 G,8 | G,4 G,4 B,8 | F,4 G,4 D,4 B,,4 | (C,4 _E,4) D,8 | G,,16 |] %42
w: am.|Et si-|cut gi- gan-|tes ste- te- runt|con\- * tra|me.|

